X:33
T:Garrett Barry's
C:Traditional
R:jig
K:G
M:6/8
L:1/8
A|: DEF ~G3| AGE c2A| dcA d2e| fed cAG|
! ~F3 GFG| AGE (3Bcd e| dcA GEA| DED D2 A:| ! |:
dcA d2e| fed (3efg e| dcA c2d| efd ecA|
! dAA d2e| fed (3efg e| dcA GEA| DED D2 A:|
%%footer JamBuddy 2025 - No rights reserved, public domain

